!!!OTL: 1451. Waldeinsamkeit.
!!!ARE: Europa, Mitteleuropa, Deutschland, Brandenburg; Sachsen; Schlesien
!!!SCT: E1451
!!!TXL: @@DE
!!!YEM: Copyright 1995, estate of Helmut Schaffrath.
**kern	**text
*ICvox	*
*M4/4	*
*met(c)	*
*k[f#]	*
*G:	*
=1	=1
!LO:TX:a:t=Etwas bewegt.	!
!LO:TX:a:t=Aus Brandenburg, Sachſen, Schleſien. (Erk.)	!
{4g	Was
8gL	kann
8aJ	.
4b	ei-
4b	-nen
=2	=2
4a	mehr
4a	er-
4g	-gö-
4d}	-tʒen,
=3	=3
{4b	als
8bL	ein
8ccJ	.
4dd	ſchö-
4dd	-ner,
=4	=4
4cc	grü-
4cc	-ner
2b}	Wald,
=5	=5
{4g	Wo
8gL	die
8aJ	.
4b	Vög-
4b	-lein
=6	=6
4a	lieb-
4a	-lich
4g	ſchwätʒen
4d}	.
=7	=7
{4b	und
8bL	Di-
8ccJ	.
4dd	-a-
4dd	-na
=8	=8
4cc	ſich
4cc	auf-
2b}	-halt.
=9	=9
{4dd	Fort
4dd	mit
4ee	dir,
4ee	ſchöns
=10	=10
4cc	Blu-
8ccL	-men-
8eeJ	.
2dd}	-feld!
=11	=11
{4b	Der
4b	Wald
4cc	iſt,
4r	.
=12	=12
4a	der
4a	Wald
4b	iſt,
4r}	.
=13	=13
{4g	der
8gL	Wald
8bJ	.
4dd	iſt
4dd	mein
=14	=14
(8ddqq	.
4cc)	Lust-
4cc	-ge-
4b	-ʒelt.
4r}	.
==	==
!!!AGN: Staende -, Jaeger - Lied
!!!ONB: ESAC (Essen Associative Code) Database: ERK3
!!!AMT: simple quadruple
!!!AIN: vox
!!!EED: Helmut Schaffrath
!!!EEV: 1.0
!!!GTL: Staendelieder (Berufslieder). 2. Jaegerlieder und Jaegerballaden.
!!!URL-scan: https://rosdok.uni-rostock.de/mcrviewer/recordIdentifier/rosdok_ppn745177999/iview2/phys_0316.iview2?x=-128.77276441889285&y=570.4876190572977&scale=0.5870222003877487&rotation=0&layout=singlePageLayout
!!!ENC: Anna Maria Matuszewska
!!!EEV: 2024/12/31
*-	*-
